X:1
T:He’ll Bless Me, Too
T:Ran C. Storey
T:He’ll Bless Me, Too
T:Public Domain
T:Public Domain
C:Ran C. Storey
Z:Public Domain
%%score 1 ( 2 3 )
L:1/8
M:4/4
K:Bb
V:1 treble 
V:2 bass 
V:3 bass 
V:1
 ([B,D][CE]) | [DF]2 [DF][EG] [DF]2 [B,D][CF] | [DB]2 [DB][EB] [DB]2 ([DB][FA]) | %3
w: 1.~How *|oft- en I wish that when|Je- sus was here— When~He *|
w: 2.~But *|when I re- mem- ber how|home- less and sad He *|
w: 3.~I’ll *|try to be faith- ful and|pa- tient and true, And *|
 [EG]2 [EG][FA] [GB]2 [FA][EG] | [DF]6 ([B,D][CE]) | [DF]2 [DF][EG] [DF]2 [B,D][DF] | %6
w: min- gled with child- ren of|men; How *|glad- ly I’d ga- ther with|
w: wan- dered that wea- ry land|o’er, It *|leads me to sing- ing, “re-|
w: lov- ing- ly seek Him in|prayer; He *|kind- ly will help me my|
 [DB]2 [FB][Fc] [Fd]2 ([DB][FA]) | [EG]2 [Gc][GB] [FA]2 [EG][EA] | [DB]6 ||"^Refrain" z [DF] | %10
w: those who were near, While~His *|bless- ing He gave un- to|them.||
w: joice and be glad, He *|liv- eth a- bove ev- er-|more.”|He|
w: du- ty to do, Un- *|til His sweet home I shall|share.||
 [DB]2 [Fd]2 [DB]3 [DF] | [DB]2 [Fd]2 [DB]3 [DF] | [EG][GB][FA][EG] [EG][DF][DB][Ec] | %13
w: |||
w: blessed them then, He’ll|bless me, too, He’s|liv- ing now in glo- ry, and He’ll|
w: |||
 [Fd]2 [Ec]2 [DB]2 |] %14
w: |
w: bless me, too.|
w: |
V:2
 [B,,F,]2 | [B,,B,]2 [B,,B,][B,,B,] [B,,B,]2 [B,,F,][B,,F,] | %2
 [B,,F,]2 [B,,F,][B,,G,] [B,,F,]2 ([B,,F,][D,B,]) | [E,B,]2 [E,B,][E,B,] [E,B,]2 [E,B,][E,B,] | %4
 [B,,B,]6 [B,,F,]2 | [B,,B,]2 [B,,B,][B,,B,] [B,,B,]2 [B,,F,][B,,B,] | %6
 [B,,B,]2 [D,B,][F,A,] B,2 ([B,,B,][D,B,]) | [E,B,]2 [E,E][E,D] [F,C]2 [F,C][F,C] | [B,,B,]6 || %9
 z [B,,B,] | [B,,F,]2 [B,,B,]2 [B,,B,]3 [B,,B,] | [B,,F,]2 [B,,B,]2 [B,,B,]3 [B,,B,] | %12
 [E,B,][E,B,][E,B,][E,B,] [B,,B,][B,,B,][G,B,][G,B,] | [F,B,]2 [F,A,]2 [B,,B,]2 |] %14
V:3
 x2 | x8 | x8 | x8 | x8 | x8 | x4 B,2 x2 | x8 | x6 || x2 | x8 | x8 | x8 | x6 |] %14

